X:1
T:Grave dolor mi dà
T:Luca Marenzio
T:Source : Il secondo Libro delle Canzonette alla Napolitana a tre voci---Venetia---G.Vincenti---1587. Editor : André Vierendeels (30/04/17).
T:Notes : Original clefs :  C1, C2 (notated as C1 in original print), F4 Editorial accidentals above the staff "Seconda impressione" Music collected by Attilio Gualtieri m 6 in S 1 :  "F" notated as "E" in original print
T:Grave dolor mi dà
T:©
T:©
C:Luca Marenzio
Z:©
%%score [ 1 2 3 ]
L:1/8
Q:1/4=120
M:4/4
K:C
V:1 treble nm="Soprano 1" snm="S 1"
V:2 treble nm="Soprano 2" snm="S 2"
V:3 bass nm="Bass" snm="B"
V:1
"^1)" z4 F4- | F4 A4- | A4 B4 | c8 | B2 d4 e2 | f2 e2 d4 |[M:2/4] c4 ::[M:4/4] z2 e4 d2- | %8
w: Gra-|* ve|_ do-|lor|mi dà l'as-|pra par- ti-|ta,|ma piu|
w: Se|_ ben|_ que-|sto|mio co- re|tor- men- ta-|to,|con pian-|
 d2 c4 B2- | B2 B2 A4 | A2 c2 c3 B | c2 d2 e4 | e4 z2 A2 | G3 F E4 | D4 A4- | A2 B2 c4- | c8 | %17
w: _ pe- na'in-|* fi- ni-|ta, mi dà'il tuo|po- co'a- mo-|re, che|s'al- tra- men-|te m'af-|* flig- ges-||
w: * ti'ahi cru-|* del sta-|to, con so- spi-|ri di fo-|co for-|za sa- ra,|che vi-|* va nel|_|
 A4 G4- | G4 F4- | F8 :| %20
w: se'il co-|* re.|_|
w: suo fo-|* co.|_|
V:2
"^2)""^1)" C8 | F8 | F8 | E8 | G2 B4 ^c2 |"^-natural" d2 c4 B2 |[M:2/4] c4 ::[M:4/4] z2 c4 B2- | %8
w: Gra-|ve|do-|lor|mi dà l'as-|pra par- ti-|ta,|ma piu|
w: E|se|per|dar|mi'ogn' ho- r'af-|fan- * gua-|i,|al- tro|
 B2 A4 G2- | G2 G2 ^F4 | F2 A2 A3 G | A2 B2 c4 | c4 z2 F2 | E2 D2 ^C4 | D4 F2 G2 | A8 | G4 E4 | %17
w: _ pe- na'in-|* fi- ni-|ta, mu dà'il tuo|po- co'a- mo-|re, che|s'al- tra- men-|te meaf- flig-|ges-|se'il co-|
w: _ ser- vo'a-|* ma- ra-|i, ben cre- der|poi, che st'al-|ma, sa-|rà per ri-|por- tar la|gra-|ve sal-|
 F6 ED | E4 F4- | F8 :| %20
w: |* re.|_|
w: |* ma.|_|
V:3
"^3)""^1)""^4)" F,8 | D,8 | D,8 | C,8 | G,2 G,4 E,2 | D,2 E,2 G,4 |[M:2/4] C,4 ::[M:4/4] C4 G,4 | %8
w: Gra-|ve|do-|lor|mi dà l'as-|pra par- ti-|ta,|ma piu|
w: Co-|si|sta-|ro|sin al ri-|tor- no'in pe-|ne,|per voi|
 A,4 E,4- | E,2 G,2 D,4 | D,2 F,2 F,3 E, | F,2 G,2 C,4 | C,4 F,4 | G,2 G,2 A,4 | D,4 D,2 E,2 | %15
w: pe- na'in-|* fi- ni-|ta, mi dà'il tuo|po- co'a- mo-|re, che|s'al- tra- men-|te m'af- flig-|
w: ca- ro|_ mio be-|ne, e all' hor|co- no- sce-|rai, che|piu ser- vo|fi- del di|
 F,8 | C,4 C,4- | C,8- | C,4 F,,4- | F,,8 :| %20
w: ges-|se'il co-||* re.|_|
w: me|non ha-||* i.|_|

